X:191
T:Hawke's Humour. JJo8.191
B:J.Johnson Choice Collection Vol 8 1758
Z:vmp.Simon Wilson 2013 www.village-music-project.org.uk
M:2/4
L:1/8
Q:1/2=90
K:A
|:Aece|Aece|Be dc|B/B/BB2|Aece|aecA|BcdB|A/A/AA2:|
|:aecA|aecA|aecA|B/B/BB2|ABcd|eaga|ecdB|A/A/AA2:|
|:AEAE|CEAc|BAGF|E/E/EE2|AEAE|CECF|ECDB,|A,/A,/A,A,2:|
